X: 41565
T: Universal Hall, The
R: jig
M: 6/8
K: Dmajor
~D3 DEF|~ A3 AFD|~E3 EFA|BcA B3|
def edB|ABd FED|A2F EAA|BAA Bcd:|
FGA AGF|FGA AGF|GAB BAG|GAB B3|
def edB|ABd FED|A2F EAA|BAA Bcd|
FGA AGF|FGA AGF|GAB BAG|GAB B3|
def gfe|dcB AFA|A2F EAA|BAA Bcd|

